!!!COM: Henri Reber
!!!CNT: Francais
!!!TXO: Francais
!!!OTL: L'e/change
!!!LYR: Alexandre Dumas
!!!ODT: 1846/
!!!ENC: Jacob Pegg
!!!YOR: Romantic French Song 1830-1870, David Tunley, ed., New York: Garland Publishing, Inc., 1995, vol. 3
!!NB: Vocal melody and text only encoded.
!!NB: First instance of melodic material only encoded.
**kern	**silbe
*clef G2	*
*k[f#c#]	*
*M2/4	*
=1	=1
2r	.
=2	=2
2r	.
=3	=3
{8.a	{En
16g#	me
8.a	pro-
16b	-me-
=4	=4
4..cc#	-nant
16a	ce
=5	=5
(8.cc#	soir,
16a)	|
8.cc#	au
16dd	ri-
=6	=6
4cc#	-va-
4b}	-ge,}
=7	=7
{8.b	{Ou\,
16a	pen-
8.b	-dant
16cc#	une
=8	=8
4.a	heu-
8b	-re, a\
=9	=9
(8.cc#	vous
16dd)	|
8.cc#	j'ai
16a	re^-
=10	=10
2b}	-ve;}
=11	=11
{8.a	{J'ai
16g#	lais-
8.a	-se/
16b	tom-
=12	=12
4..cc#	-ber
16a	mon
=13	=13
(8.cc#	coeur
16a)	|
8.cc#	sur
16dd	la
=14	=14
4cc#	pla-
4b}	-ge;}
=15	=15
{8.b	{Vous
16b	ve-
8.b	-niez
16b	a-
=16	=16
2b}	-pre\s,}
=17	=17
{(cc#q	{vous
8.b)	|
16a	l'a-
8.b	-vez
16cc#	trou-
=18	=18
[2a	-ve/
=19	=19
2a_	|
=20	=20
4a]}	|}
4r	.
=21	=21
2r	.
=22	=22
2r	.
=23	=23
{(16aq	{Di-
16bq	|
8.a)	|
16g#	-tes~
8.a	~moi
16b	com-
=24	=24
4..cc#	-ment
16cc#	fi-
=25	=25
(8.dd	-nir
16cc#)	|
8.b	cet-
16dd	-te af-
=26	=26
4cc#	-fai-
8cc#}	-re!}
8r	.
=27	=27
{8cc#	{Les
8b#	pro-
8b#	-ce\s
8g#	sont
=28	=28
4.bn	longs,
8cc#	les
=29	=29
(8.b	ju-
16a#)	|
8.a#	-ges
16f#	ven-
=30	=30
2an}	-dus;}
=31	=31
{(aq	{Je
8.g#)	|
16f#	per-
8.g#	-drai
16a	ma
=32	=32
2b}	cause,}
=33	=33
{8.cc#	{et
16cc#	pour-
8.ee	-tant
16cc#	que
=34	=34
4b	fai-
4b}	-re?}
=35	=35
{8.a	{Vous
16g#	a-
8a	-vez
8b	deux
=36	=36
4g#	coeurs,
8.g#	et
16g#	je
=37	=37
4cc#	n'en
4cc#	ai
=38	=38
2b#}	plus.}
=39	=39
{8.cc#	{Vous
16g#	a-
8g#	-vez
8bn	deux
=40	=40
4a	coeurs,
8.a	et
16a	je
=41	=41
4b	n'en
4b	ai
=42	=42
[2cc#	plus
=43	=43
2cc#_	|
=44	=44
2cc#_	|
=45	=45
8cc#]}	|}
8r	.
4r	.
=46	=46
2r	.
=47	=47
{8.cc#	{Mais,
16b	quand
8.cc#	on
16dd#	s'en-
=48	=48
2b	-tend,
=49	=49
8.b	bien-
16a	-t^ot
8.b	tout
16cc#	s'ar-
=50	=50
4a	-ran-
4a}	-ge,}
=51	=51
{8.a	{Et
16a	sou-
8.dd	-vent
16cc#	le
=52	=52
(8.cc#	mal
16bb)	|
8b	nous
8cc#	con-
=53	=53
4a	-duit
4cc#	au
=54	=54
[2b	bien;
=55	=55
2b_	|
=56	=56
4b]}	|}
4r	.
=57	=57
2r	.
=58	=58
{8.a	{De
16g#	nos
8.a	coeurs
16b	en-
=59	=59
4..cc#	-tr'eux
16cc#	fai-
=60	=60
(8.dd	-sons
16cc#)	|
8.b	un
16dd	e/-
=61	=61
4cc#	-chan-
4cc#}	-ge;}
=62	=62
{8.b	{Don-
16a	-nez
8.b	moi
16cc#	le
=63	=63
4a	vo^tre,
8a	et
8dd	gar-
=64	=64
4cc#	-dez
4g#	le
=65	=65
2a}	mieu.}
=66	=66
{(bq	{Don-
8.a)	|
16g#	-nez
8.a	moi
16b	le
!!last two could be even eighths, hard to tell from autograph
=67	=67
4cc#	vo^tre,
8a	et
8dd	gar-
=68	=68
4cc#	-dez
4g#	le
=69	=69
[2a	mieu
=70	=70
2a_	|
=71	=71
4a]}	|}
4r	.
*-	*-
